; generated by Slic3r Prusa Edition 1.38.6-prusa3d-win64 on 2018-02-17 at 17:12:57

; 

; external perimeters extrusion width = 0.60mm
; perimeters extrusion width = 0.43mm
; infill extrusion width = 0.70mm
; solid infill extrusion width = 0.70mm
; top infill extrusion width = 0.43mm
; first layer extrusion width = 0.42mm

M107
M115 U3.1.0 ; tell printer latest fw version
; Start G-Code sequence START
T0
M104 S230 ; set extruder temp
M140 S60 ; set bed temp
M190 S60 ; wait for bed temp
M109 S230 ; wait for extruder temp
G21 ; set units to millimeters
G90 ; use absolute coordinates
M83 ; use relative distances for extrusion
G28 W
G80
G92 E0.0
M203 E100 ; set max feedrate
M92 E140 ; E-steps per filament milimeter

G1 Z0.250 F7200.000
G1 X50.0 E80.0  F1000.0
G1 X160.0 E20.0  F1000.0
G1 Z0.200 F7200.000
G1 X220.0 E13 F1000.0
G1 X240.0 E0 F1000.0
G1 E-4 F1000.0

G92 E0.0
M900 K200; Filament gcode
G21 ; set units to millimeters
G90 ; use absolute coordinates
M83 ; use relative distances for extrusion
;BEFORE_LAYER_CHANGE
;0.2


G1 Z0.200 F7200.000
;AFTER_LAYER_CHANGE
;0.2
G1 E-4.00000 F4800.00000
G1 Z0.800 F7200.000
G1 X98.024 Y16.178 F7200.000
G1 Z0.200 F7200.000
G1 E4.00000 F3000.00000
M204 S1000
G1 F1800
G1 X98.532 Y15.630 E0.02366
G1 X99.185 Y15.267 E0.02366
G1 X99.919 Y15.124 E0.02366
G1 X150.004 Y15.123 E1.58608
G1 X150.902 Y15.301 E0.02901
G1 X151.670 Y15.808 E0.02913
G1 X152.187 Y16.569 E0.02913
G1 X152.377 Y17.468 E0.02913
G1 X152.377 Y192.500 E5.54287
G1 X152.287 Y193.147 E0.02068
G1 X151.974 Y193.825 E0.02366
G1 X151.465 Y194.372 E0.02366
G1 X150.807 Y194.736 E0.02378
G1 X150.073 Y194.876 E0.02366
G1 X99.996 Y194.877 E1.58584
G1 X99.353 Y194.787 E0.02056
G1 X98.665 Y194.467 E0.02402
G1 X98.111 Y193.944 E0.02414
G1 X97.752 Y193.271 E0.02414
G1 X97.623 Y192.524 E0.02402
G1 X97.623 Y17.500 E5.54263
G1 X97.712 Y16.857 E0.02056
G1 X97.999 Y16.233 E0.02176
G1 E-2.40000 F4800.00000
G1 F5760
G1 X98.532 Y15.630 E-0.63691
G1 F5760
G1 X99.185 Y15.267 E-0.59158
G1 F5760
G1 X99.547 Y15.197 E-0.29151
G1 E-0.08000 F4800.00000
G1 Z0.800 F7200.000
G1 X142.335 Y173.019 F7200.000
G1 Z0.200 F7200.000
G1 E4.00000 F3000.00000
G1 F1800
G1 X142.972 Y173.032 E0.02018
G1 X143.342 Y173.084 E0.01182
G1 X143.726 Y173.171 E0.01248
G1 X144.081 Y173.286 E0.01182
G1 X144.643 Y173.542 E0.01954
G1 X144.972 Y173.740 E0.01216
G1 X145.291 Y173.974 E0.01252
G1 X145.574 Y174.222 E0.01192
G1 X146.031 Y174.733 E0.02171
G1 X146.381 Y175.278 E0.02052
G1 X146.544 Y175.612 E0.01176
G1 X146.673 Y175.944 E0.01129
G1 X146.789 Y176.337 E0.01298
G1 X146.887 Y176.918 E0.01867
G1 X146.909 Y177.330 E0.01305
G1 X146.893 Y177.728 E0.01261
G1 X146.845 Y178.101 E0.01192
G1 X146.680 Y178.749 E0.02117
G1 X146.537 Y179.113 E0.01238
G1 X146.242 Y179.668 E0.01991
G1 X146.024 Y179.980 E0.01205
G1 X145.777 Y180.278 E0.01226
G1 X145.514 Y180.543 E0.01182
G1 X145.007 Y180.947 E0.02053
G1 X144.409 Y181.286 E0.02179
G1 X144.025 Y181.442 E0.01311
G1 X143.685 Y181.548 E0.01129
G1 X143.323 Y181.629 E0.01175
G1 X142.695 Y181.693 E0.01998
G1 X142.284 Y181.684 E0.01303
G1 X141.929 Y181.646 E0.01129
G1 X141.565 Y181.577 E0.01176
G1 X140.963 Y181.387 E0.01998
G1 X140.589 Y181.216 E0.01303
G1 X140.264 Y181.032 E0.01183
G1 X139.757 Y180.660 E0.01989
G1 X139.484 Y180.406 E0.01183
G1 X139.224 Y180.119 E0.01227
G1 X138.992 Y179.813 E0.01216
G1 X138.644 Y179.210 E0.02204
G1 X138.416 Y178.615 E0.02018
G1 X138.324 Y178.255 E0.01174
G1 X138.264 Y177.904 E0.01129
G1 X138.232 Y177.511 E0.01248
G1 X138.234 Y177.137 E0.01184
G1 X138.311 Y176.511 E0.01998
G1 X138.411 Y176.112 E0.01302
G1 X138.527 Y175.775 E0.01129
G1 X138.676 Y175.436 E0.01174
G1 X138.998 Y174.886 E0.02018
G1 X139.439 Y174.347 E0.02205
G1 X139.718 Y174.083 E0.01216
G1 X140.021 Y173.842 E0.01226
G1 X140.332 Y173.635 E0.01182
G1 X140.892 Y173.351 E0.01990
G1 X141.243 Y173.222 E0.01183
G1 X141.643 Y173.113 E0.01314
G1 X142.276 Y173.027 E0.02021
G1 X142.327 Y173.401 F7200.000
G1 F1800
G1 X142.942 Y173.409 E0.01950
G1 X143.274 Y173.455 E0.01061
G1 X143.626 Y173.535 E0.01144
G1 X143.945 Y173.638 E0.01061
G1 X144.467 Y173.876 E0.01816
G1 X144.763 Y174.054 E0.01094
G1 X145.055 Y174.268 E0.01147
G1 X145.308 Y174.490 E0.01067
G1 X145.729 Y174.962 E0.02003
G1 X146.052 Y175.463 E0.01887
G1 X146.198 Y175.763 E0.01057
G1 X146.316 Y176.066 E0.01028
G1 X146.421 Y176.422 E0.01175
G1 X146.511 Y176.960 E0.01730
G1 X146.532 Y177.332 E0.01181
G1 X146.517 Y177.696 E0.01152
G1 X146.474 Y178.030 E0.01066
G1 X146.320 Y178.633 E0.01970
G1 X146.194 Y178.955 E0.01095
G1 X145.919 Y179.471 E0.01850
G1 X145.724 Y179.751 E0.01082
G1 X145.497 Y180.024 E0.01123
G1 X145.262 Y180.262 E0.01061
G1 X144.796 Y180.633 E0.01888
G1 X144.244 Y180.946 E0.02008
G1 X143.898 Y181.087 E0.01183
G1 X143.588 Y181.183 E0.01028
G1 X143.262 Y181.256 E0.01056
G1 X142.680 Y181.315 E0.01855
G1 X142.308 Y181.308 E0.01178
G1 X141.985 Y181.273 E0.01028
G1 X141.657 Y181.210 E0.01057
G1 X141.099 Y181.034 E0.01855
G1 X140.761 Y180.880 E0.01178
G1 X140.469 Y180.714 E0.01061
G1 X139.998 Y180.369 E0.01849
G1 X139.753 Y180.141 E0.01061
G1 X139.515 Y179.878 E0.01124
G1 X139.307 Y179.604 E0.01089
G1 X138.986 Y179.047 E0.02036
G1 X138.776 Y178.500 E0.01855
G1 X138.693 Y178.177 E0.01056
G1 X138.639 Y177.857 E0.01029
G1 X138.610 Y177.497 E0.01144
G1 X138.611 Y177.161 E0.01062
G1 X138.683 Y176.580 E0.01855
G1 X138.773 Y176.219 E0.01177
G1 X138.879 Y175.912 E0.01028
G1 X139.012 Y175.607 E0.01056
G1 X139.308 Y175.102 E0.01855
G1 X139.716 Y174.604 E0.02036
G1 X139.965 Y174.368 E0.01089
G1 X140.243 Y174.147 E0.01123
G1 X140.522 Y173.961 E0.01061
G1 X141.043 Y173.697 E0.01849
G1 X141.357 Y173.582 E0.01061
G1 X141.718 Y173.484 E0.01185
G1 X142.267 Y173.409 E0.01754
G1 X142.318 Y173.782 F7200.000
G1 F1800
G1 X142.912 Y173.786 E0.01881
G1 X143.206 Y173.826 E0.00939
G1 X143.526 Y173.899 E0.01040
G1 X143.809 Y173.990 E0.00939
G1 X144.291 Y174.210 E0.01677
G1 X144.553 Y174.368 E0.00971
G1 X144.819 Y174.563 E0.01041
G1 X145.042 Y174.759 E0.00942
G1 X145.428 Y175.191 E0.01836
G1 X145.723 Y175.648 E0.01723
G1 X145.852 Y175.915 E0.00938
G1 X145.959 Y176.188 E0.00928
G1 X146.053 Y176.506 E0.01051
G1 X146.136 Y177.002 E0.01592
G1 X146.154 Y177.335 E0.01057
G1 X146.141 Y177.664 E0.01043
G1 X146.103 Y177.959 E0.00941
G1 X145.960 Y178.517 E0.01824
G1 X145.851 Y178.797 E0.00952
G1 X145.597 Y179.274 E0.01710
G1 X145.424 Y179.522 E0.00960
G1 X145.218 Y179.770 E0.01020
G1 X145.009 Y179.981 E0.00939
G1 X144.584 Y180.320 E0.01723
G1 X144.079 Y180.606 E0.01837
G1 X143.771 Y180.732 E0.01054
G1 X143.491 Y180.818 E0.00928
G1 X143.202 Y180.883 E0.00938
G1 X142.664 Y180.938 E0.01711
G1 X142.332 Y180.931 E0.01052
G1 X142.041 Y180.900 E0.00928
G1 X141.750 Y180.844 E0.00938
G1 X141.234 Y180.681 E0.01711
G1 X140.932 Y180.543 E0.01053
G1 X140.674 Y180.397 E0.00939
G1 X140.239 Y180.078 E0.01709
G1 X140.021 Y179.876 E0.00940
G1 X139.805 Y179.637 E0.01020
G1 X139.622 Y179.395 E0.00962
G1 X139.327 Y178.884 E0.01867
G1 X139.136 Y178.386 E0.01691
G1 X139.063 Y178.099 E0.00938
G1 X139.013 Y177.810 E0.00928
G1 X138.987 Y177.482 E0.01040
G1 X138.988 Y177.186 E0.00940
G1 X139.054 Y176.649 E0.01711
G1 X139.135 Y176.327 E0.01052
G1 X139.230 Y176.050 E0.00928
G1 X139.349 Y175.779 E0.00938
G1 X139.619 Y175.318 E0.01691
G1 X139.992 Y174.862 E0.01867
G1 X140.213 Y174.652 E0.00963
G1 X140.465 Y174.452 E0.01020
G1 X140.712 Y174.288 E0.00939
G1 X141.194 Y174.044 E0.01709
G1 X141.472 Y173.941 E0.00940
G1 X141.794 Y173.854 E0.01055
G1 X142.259 Y173.791 E0.01486
G1 X142.498 Y173.425 F7200.000
G1 E-2.40000 F4800.00000
G1 F5760
G1 X142.912 Y173.786 E-0.51740
G1 F5760
G1 X143.206 Y173.826 E-0.23486
G1 F5760
G1 X143.526 Y173.899 E-0.26011
G1 F5760
G1 X143.809 Y173.990 E-0.23484
G1 F5760
G1 X144.122 Y174.133 E-0.27279
G1 E-0.08000 F4800.00000
G1 Z0.800 F7200.000
G1 X142.525 Y160.689 F7200.000
G1 Z0.200 F7200.000
G1 E4.00000 F3000.00000
G1 F1800
G1 X142.284 Y160.684 E0.00765
G1 X141.929 Y160.646 E0.01129
G1 X141.565 Y160.577 E0.01176
G1 X140.963 Y160.387 E0.01998
G1 X140.589 Y160.216 E0.01303
G1 X140.264 Y160.032 E0.01183
G1 X139.757 Y159.660 E0.01989
G1 X139.484 Y159.406 E0.01183
G1 X139.224 Y159.119 E0.01227
G1 X138.992 Y158.813 E0.01216
G1 X138.644 Y158.210 E0.02205
G1 X138.416 Y157.615 E0.02018
G1 X138.324 Y157.255 E0.01174
G1 X138.264 Y156.904 E0.01129
G1 X138.231 Y156.491 E0.01310
G1 X138.262 Y155.804 E0.02178
G1 X138.391 Y155.181 E0.02017
G1 X138.511 Y154.816 E0.01216
G1 X138.668 Y154.453 E0.01252
G1 X138.846 Y154.124 E0.01184
G1 X139.206 Y153.610 E0.01990
G1 X139.454 Y153.333 E0.01177
G1 X139.718 Y153.083 E0.01150
G1 X140.021 Y152.842 E0.01226
G1 X140.332 Y152.635 E0.01182
G1 X140.892 Y152.351 E0.01990
G1 X141.243 Y152.222 E0.01183
G1 X141.643 Y152.113 E0.01314
G1 X142.335 Y152.019 E0.02211
G1 X142.972 Y152.032 E0.02018
G1 X143.342 Y152.084 E0.01182
G1 X143.726 Y152.171 E0.01248
G1 X144.081 Y152.286 E0.01182
G1 X144.643 Y152.542 E0.01954
G1 X144.972 Y152.740 E0.01216
G1 X145.291 Y152.974 E0.01252
G1 X145.574 Y153.222 E0.01192
G1 X146.020 Y153.721 E0.02120
G1 X146.248 Y154.051 E0.01270
G1 X146.538 Y154.596 E0.01954
G1 X146.673 Y154.944 E0.01182
G1 X146.789 Y155.338 E0.01303
G1 X146.892 Y155.961 E0.01997
G1 X146.909 Y156.334 E0.01184
G1 X146.893 Y156.728 E0.01248
G1 X146.845 Y157.101 E0.01192
G1 X146.680 Y157.749 E0.02117
G1 X146.537 Y158.113 E0.01238
G1 X146.242 Y158.668 E0.01991
G1 X146.024 Y158.980 E0.01205
G1 X145.777 Y159.277 E0.01226
G1 X145.514 Y159.543 E0.01182
G1 X145.007 Y159.947 E0.02053
G1 X144.409 Y160.286 E0.02179
G1 X144.025 Y160.442 E0.01311
G1 X143.685 Y160.548 E0.01129
G1 X143.323 Y160.629 E0.01175
G1 X142.585 Y160.691 E0.02343
G1 X142.593 Y160.314 F7200.000
G1 F1800
G1 X142.308 Y160.308 E0.00903
G1 X141.985 Y160.273 E0.01028
G1 X141.657 Y160.210 E0.01057
G1 X141.099 Y160.034 E0.01855
G1 X140.761 Y159.880 E0.01178
G1 X140.469 Y159.714 E0.01061
G1 X139.998 Y159.369 E0.01849
G1 X139.753 Y159.141 E0.01061
G1 X139.515 Y158.878 E0.01124
G1 X139.307 Y158.604 E0.01089
G1 X138.986 Y158.047 E0.02036
G1 X138.776 Y157.500 E0.01854
G1 X138.693 Y157.177 E0.01056
G1 X138.639 Y156.857 E0.01029
G1 X138.609 Y156.485 E0.01182
G1 X138.638 Y155.851 E0.02007
G1 X138.756 Y155.278 E0.01854
G1 X138.864 Y154.950 E0.01093
G1 X139.008 Y154.618 E0.01147
G1 X139.167 Y154.323 E0.01062
G1 X139.502 Y153.845 E0.01850
G1 X139.725 Y153.596 E0.01058
G1 X139.965 Y153.368 E0.01049
G1 X140.243 Y153.147 E0.01123
G1 X140.522 Y152.961 E0.01061
G1 X141.043 Y152.697 E0.01849
G1 X141.357 Y152.582 E0.01061
G1 X141.718 Y152.484 E0.01185
G1 X142.357 Y152.397 E0.02040
G1 X142.942 Y152.409 E0.01854
G1 X143.274 Y152.455 E0.01061
G1 X143.626 Y152.535 E0.01144
G1 X143.945 Y152.638 E0.01061
G1 X144.467 Y152.876 E0.01816
G1 X144.763 Y153.054 E0.01094
G1 X145.055 Y153.268 E0.01147
G1 X145.308 Y153.490 E0.01067
G1 X145.723 Y153.955 E0.01972
G1 X145.925 Y154.247 E0.01127
G1 X146.194 Y154.754 E0.01816
G1 X146.316 Y155.066 E0.01061
G1 X146.421 Y155.422 E0.01178
G1 X146.516 Y156.000 E0.01854
G1 X146.532 Y156.335 E0.01062
G1 X146.517 Y156.696 E0.01144
G1 X146.474 Y157.030 E0.01066
G1 X146.320 Y157.633 E0.01970
G1 X146.194 Y157.955 E0.01095
G1 X145.919 Y158.471 E0.01850
G1 X145.724 Y158.751 E0.01082
G1 X145.497 Y159.024 E0.01123
G1 X145.262 Y159.262 E0.01061
G1 X144.796 Y159.633 E0.01888
G1 X144.244 Y159.946 E0.02008
G1 X143.898 Y160.087 E0.01183
G1 X143.588 Y160.183 E0.01028
G1 X143.262 Y160.256 E0.01056
G1 X142.653 Y160.315 E0.01938
G1 X142.664 Y159.938 F7200.000
G1 F1800
G1 X142.332 Y159.931 E0.01052
G1 X142.041 Y159.900 E0.00928
G1 X141.750 Y159.844 E0.00938
G1 X141.234 Y159.681 E0.01711
G1 X140.932 Y159.543 E0.01053
G1 X140.674 Y159.397 E0.00939
G1 X140.239 Y159.078 E0.01709
G1 X140.021 Y158.876 E0.00940
G1 X139.805 Y158.637 E0.01020
G1 X139.622 Y158.395 E0.00962
G1 X139.327 Y157.884 E0.01867
G1 X139.136 Y157.386 E0.01691
G1 X139.063 Y157.099 E0.00938
G1 X139.013 Y156.810 E0.00928
G1 X138.986 Y156.478 E0.01054
G1 X139.013 Y155.898 E0.01837
G1 X139.121 Y155.375 E0.01691
G1 X139.217 Y155.084 E0.00971
G1 X139.347 Y154.782 E0.01042
G1 X139.488 Y154.521 E0.00940
G1 X139.798 Y154.079 E0.01710
G1 X139.996 Y153.859 E0.00938
G1 X140.213 Y153.652 E0.00948
G1 X140.465 Y153.452 E0.01020
G1 X140.712 Y153.288 E0.00939
G1 X141.194 Y153.044 E0.01709
G1 X141.472 Y152.941 E0.00940
G1 X141.794 Y152.854 E0.01055
G1 X142.378 Y152.774 E0.01869
G1 X142.912 Y152.786 E0.01691
G1 X143.206 Y152.826 E0.00939
G1 X143.526 Y152.899 E0.01040
G1 X143.809 Y152.990 E0.00939
G1 X144.291 Y153.210 E0.01677
G1 X144.553 Y153.368 E0.00971
G1 X144.819 Y153.563 E0.01041
G1 X145.042 Y153.759 E0.00942
G1 X145.426 Y154.188 E0.01825
G1 X145.602 Y154.444 E0.00983
G1 X145.851 Y154.911 E0.01677
G1 X145.959 Y155.188 E0.00939
G1 X146.053 Y155.506 E0.01053
G1 X146.140 Y156.040 E0.01711
G1 X146.154 Y156.336 E0.00940
G1 X146.141 Y156.664 E0.01041
G1 X146.103 Y156.959 E0.00941
G1 X145.960 Y157.517 E0.01824
G1 X145.851 Y157.797 E0.00952
G1 X145.597 Y158.274 E0.01710
G1 X145.424 Y158.522 E0.00960
G1 X145.218 Y158.770 E0.01020
G1 X145.009 Y158.981 E0.00939
G1 X144.584 Y159.320 E0.01723
G1 X144.079 Y159.606 E0.01837
G1 X143.771 Y159.732 E0.01054
G1 X143.491 Y159.818 E0.00928
G1 X143.202 Y159.883 E0.00938
G1 X142.724 Y159.932 E0.01521
G1 X142.508 Y160.231 F7200.000
G1 E-2.40000 F4800.00000
G1 F5760
G1 X142.332 Y159.931 E-0.31031
G1 F5760
G1 X142.041 Y159.900 E-0.23192
G1 F5760
G1 X141.750 Y159.844 E-0.23452
G1 F5760
G1 X141.234 Y159.681 E-0.42778
G1 F5760
G1 X140.932 Y159.543 E-0.26312
G1 F5760
G1 X140.875 Y159.511 E-0.05237
G1 E-0.08000 F4800.00000
G1 Z0.800 F7200.000
G1 X141.815 Y142.271 F7200.000
G1 Z0.200 F7200.000
G1 E4.00000 F3000.00000
G1 F1800
G1 X141.139 Y142.199 E0.02151
G1 X140.487 Y142.010 E0.02151
G1 X139.897 Y141.719 E0.02083
G1 X139.595 Y141.516 E0.01152
G1 X139.287 Y141.263 E0.01264
G1 X138.834 Y140.771 E0.02116
G1 X138.503 Y140.259 E0.01932
G1 X138.338 Y139.917 E0.01201
G1 X138.141 Y139.313 E0.02015
G1 X138.075 Y138.955 E0.01152
G1 X138.042 Y138.580 E0.01192
G1 X138.044 Y138.219 E0.01144
G1 X138.126 Y137.603 E0.01966
G1 X138.329 Y136.957 E0.02144
G1 X138.648 Y136.348 E0.02177
G1 X139.086 Y135.789 E0.02250
G1 X139.594 Y135.339 E0.02149
G1 X140.122 Y135.013 E0.01967
G1 X140.468 Y134.856 E0.01203
G1 X141.100 Y134.665 E0.02090
G1 X141.806 Y134.586 E0.02250
G1 X142.492 Y134.635 E0.02176
G1 X143.148 Y134.801 E0.02143
G1 X143.704 Y135.050 E0.01930
G1 X144.038 Y135.252 E0.01236
G1 X144.534 Y135.653 E0.02020
G1 X144.784 Y135.917 E0.01152
G1 X145.029 Y136.231 E0.01261
G1 X145.361 Y136.803 E0.02095
G1 X145.594 Y137.449 E0.02175
G1 X145.701 Y138.050 E0.01931
G1 X145.720 Y138.429 E0.01201
G1 X145.667 Y139.065 E0.02024
G1 X145.579 Y139.454 E0.01261
G1 X145.467 Y139.797 E0.01142
G1 X145.216 Y140.328 E0.01862
G1 X145.007 Y140.657 E0.01236
G1 X144.580 Y141.161 E0.02089
G1 X144.051 Y141.599 E0.02176
G1 X143.447 Y141.935 E0.02188
G1 X143.081 Y142.076 E0.01243
G1 X142.489 Y142.222 E0.01930
G1 X141.875 Y142.266 E0.01951
G1 X141.848 Y141.890 F7200.000
G1 F1800
G1 X141.212 Y141.828 E0.02022
G1 X140.624 Y141.657 E0.01939
G1 X140.087 Y141.392 E0.01898
G1 X139.820 Y141.213 E0.01017
G1 X139.546 Y140.988 E0.01124
G1 X139.133 Y140.540 E0.01930
G1 X138.832 Y140.075 E0.01754
G1 X138.689 Y139.777 E0.01046
G1 X138.507 Y139.220 E0.01856
G1 X138.449 Y138.904 E0.01017
G1 X138.419 Y138.564 E0.01080
G1 X138.421 Y138.245 E0.01011
G1 X138.495 Y137.685 E0.01788
G1 X138.678 Y137.102 E0.01935
G1 X138.966 Y136.554 E0.01961
G1 X139.361 Y136.049 E0.02032
G1 X139.820 Y135.643 E0.01938
G1 X140.300 Y135.346 E0.01788
G1 X140.601 Y135.210 E0.01048
G1 X141.176 Y135.036 E0.01902
G1 X141.814 Y134.965 E0.02032
G1 X142.432 Y135.009 E0.01960
G1 X143.023 Y135.159 E0.01934
G1 X143.529 Y135.385 E0.01753
G1 X143.821 Y135.561 E0.01080
G1 X144.277 Y135.930 E0.01859
G1 X144.498 Y136.163 E0.01016
G1 X144.716 Y136.443 E0.01122
G1 X145.018 Y136.963 E0.01905
G1 X145.228 Y137.547 E0.01966
G1 X145.325 Y138.092 E0.01754
G1 X145.342 Y138.422 E0.01046
G1 X145.293 Y139.008 E0.01862
G1 X145.215 Y139.354 E0.01122
G1 X145.116 Y139.657 E0.01010
G1 X144.885 Y140.146 E0.01712
